!! 00000] TT[00
!! NN
!!!OTL: Gonglao zuigao gongchan dang
!!!ARE: Asia, China,ÿGuangdong, Zhongshan
!! Ethnic Group: Han
!! II, 345
!!!SCT: C0239
!!!YEM: Copyright 1995, estate of Helmut Schaffrath.
**kern
*ICvox
*Ivox
!! Mixed meters:  2/4; 3/4
*M2/4
*k[f#c#g#]
*A:
{8g#
8cc#
8cc#
8cc#
=1
8ee
8cc#
8cc#
[8b
=2
4.b]
8cc#}
=3
{8a
8cc#
8b
8a
=4
16b
16a
8f#
4e
=5
2e}
=6
{16b
16cc#
8a
8b
16b
16cc#
=7
8b
8e
16b
16cc#
[8a
=8
4.a]
16b
16cc#}
=9
{8b
8b
8b
16b
16cc#
=10
16b
16a
8f#
4e
=11
2e}
=12
{8ee
8g#
8b
8b
=13
8g#
8g#
8ee
[8b
=14
4.b]
8cc#}
=15
{8a
16a
16b
8e
8e
=16
16b
16a
8f#
4e
=17
2e}
=18
{16cc#
16b
8a
8a
8a
=19
*M3/4
8b
8b
8e
4a
16b
16cc#}
=20
*M2/4
{8a
8e
8b
16b
16cc#
=21
4e
4b
=22
*M3/4
16b
16a
8f#
2e}
=23
*M2/4
{8ee
8ee
8ee
8g#
=24
8ee
8ee
8cc#
[8b
=25
4.b]
8cc#}
=26
{8b
16b
16a
8e
8b
=27
16b
16a
8f#
4e
=28
2e}
=29
{8b
8b
8e
8e
=30
16a
16b
8cc#
4b
=31
*M3/4
16b
16a
8f#
2e}
=32
*M2/4
{8cc#
8g#
8b
16b
16cc#
=33
8g#
8g#
8ee
[8b
=34
4.b]
8cc#}
=35
{8e
8e
8a
8b
=36
*M3/4
4e
4b
16b
16a
8f#
=37
*M2/4
2e}
=38
{8b
8b
8a
16b
16cc#
=39
*M3/4
8b
8b
8ee
4a
16b
16cc#}
=40
*M2/4
{8b
16b
16cc#
16a
16b
16b
16a
=41
8e
4.b
=42
16b
16a
8f#
2e}
==
!!!AGN: Shange, Fengsuge, Gaotangge. Xin minge
!! Die Tonart ist typisch. Das Lied moduliert in die Quinte, ist
!!    aber streng pentatonisch, Jiang Min Dun).
!!    Vereinzelt Fermaten, mehrere Verzierungen und Glissandi.
!!!ONB: ESAC (Essen Associative Code) Database: CHINA
!!!AMT: irregular
!!!AIN: vox
!!!EED: Helmut Schaffrath
!!!EEV: 1.0
*-
!!!ONB: Tied note syntax fixed by Craig Sapp, 2004/05/03/
